X: 2484
T: Ballydesmond, The
R: polka
M: 2/4
K: Adorian
|:EA AB|cd e2|G>F GA|GE ED|
EA AB|B/c/d ef|g/f/e dB|A2 A2:|
|:a>g ab|ag ef|g>f ga|ge d2|
ea ab|ag ef|ge dB|A2 A2:|

